!!!COM:	Bach, Johann Sebastian
!!!CDT:	1685/02/21/-1750/07/28/
!!!OTL@@DE:	Jesu, Jesu, du bist mein
!!!SCT:	BWV 357
!!!PC#:	244
!!!AGN:	chorale
**kern	**kern	**kern	**kern
*ICvox	*ICvox	*ICvox	*ICvox
*Ibass	*Itenor	*Ialto	*Isoprn
*I"Bass	*I"Tenor	*I"Alto	*I"Soprano
*clefF4	*clefGv2	*clefG2	*clefG2
*k[b-e-]	*k[b-e-]	*k[b-e-]	*k[b-e-]
*c:dor	*c:dor	*c:dor	*c:dor
*M4/4	*M4/4	*M4/4	*M4/4
*met(c)	*met(c)	*met(c)	*met(c)
*MM100	*MM100	*MM100	*MM100
=1-	=1-	=1-	=1-
4C	4c	4e-	4.g
4E-	4c	4g	.
.	.	.	8cc
4D	4d	4f	4b
4C	4e-	4g	4cc
=2	=2	=2	=2
4BB	4d	4g	4dd
4C	4c	4g	8ee-L
.	.	.	8ddJ
2GG;	4c	2g;	2dd;
.	4BnX;	.	.
=3	=3	=3	=3
4C	4c	4g	4ee-
8cL	8e-L	4g	4cc
8B-XJ	8dJ	.	.
4.A-	4c	8fL	4ff
.	.	8gJ	.
.	4c	[4a-	4ee-
8G	.	.	.
=4	=4	=4	=4
4F	4c	8a-L]	4dd
.	.	8d	.
4G	4B	8g	8.ddL
.	.	8fJ	.
.	.	.	16ee-Jk
2C;	4G	4e-	4cc
.	4G;	4e-;	4cc;
=5	=5	=5	=5
4c	4c	8e-L	4g
.	.	8fJ	.
4B-X	4d	4g	4g
4A-	4e-	8cL	4cc
.	.	8dJ	.
8GL	4B-	4e-	4b-
8FJ	.	.	.
=6	=6	=6	=6
8E-L	4B-	4f	4a-
8DJ	.	.	.
4E-	4B-	4e-	8gL
.	.	.	8fJ
2BB-;	2B-;	2d;	2f;
=7	=7	=7	=7
8DL	4B-	4.f	4b-
8BB-J	.	.	.
4E-	4B-	.	4g
.	.	8e-	.
4AA-	8cL	8e-L	8ccL
.	[8B-J	8fJ	8ddJ
8GGL	8B-L]	8gL	4ee-
8AA-J	8cJ	8fJ	.
=8	=8	=8	=8
8BB-L	4B-	4e-	4g
8AA-J	.	.	.
4BB-	8.B-L	4d	8fL
.	.	.	8e-J
.	16A-Jk	.	.
2EE-;	4G	4B-	4e-
.	4G;	4B-;	4e-;
=9	=9	=9	=9
8E-L	4B-	4e-	4.g
8D	.	.	.
8E-	8cL	4e-	.
8CJ	8e-J	.	8anX
8DL	4d	4f	4b
8A-	.	.	.
8G	4d	4g	4b
8FJ	.	.	.
=10	=10	=10	=10
8E-L	4e-	4g	4cc
8CJ	.	.	.
8FFL	4f	4a-	4dd
8FJ	.	.	.
8GL	4d	4g	4b
8GG	.	.	.
8G	4d;	4g;	4b;
8F;J	.	.	.
=11	=11	=11	=11
8E-L	4e-	4g	4cc
8D	.	.	.
8C	4d	4g	4dd
8BBJ	.	.	.
8CL	8cL	4g	4ee-
8G	8d	.	.
8c	8e-	4g	4cc
8B-J	8dJ	.	.
=12	=12	=12	=12
4A-	4c	4f	4ff
8GL	4c	4g	4ee-
8FJ	.	.	.
4G	4c	4g	4dd
4GG;	4B;	4g;	4dd;
=13	=13	=13	=13
4E-	4c	4g	4cc
4C	4e-	[4g	4g
4F	4c	8g]	4a-
.	.	4f	.
4G	4B	.	4g
.	.	8e-	.
=14	=14	=14	=14
2A-	8cL	8e-L	4.g
.	8BJ	8dJ	.
.	4c	4c	.
.	.	.	8f
2G;	2B;	2d;	2g;
=15	=15	=15	=15
8E-L	4c	8gL	4cc
8D	.	8fJ	.
8E-	4c	8gL	4g
8CJ	.	8e-J	.
8FL	4c	4f	8a-L
8G	.	.	8gJ
8A-	4A-	4c	8fL
8FJ	.	.	16e-L
.	.	.	16dJJ
=16	=16	=16	=16
4G	4G	4c	4e-
4GG	8.GL	4B	8dL
.	.	.	8cJ
.	16FJk	.	.
2C;	2E;	2G;	2c;
==	==	==	==
*-	*-	*-	*-
!!!hum2abc: -Q ''
!!!title: @{PC#}. @{OTL@@DE}
!!!YOR1: 371 vierstimmige Choralges&auml;nge von Johann Sebastian Bach, 
!!!YOR2: 4th ed. by Alfred D&ouml;rffel (Leipzig: Breitkopf und H&auml;rtel, 
!!!YOR2: c.1875). 178 pp. Plate "V.A.10".  reprint: J.S. Bach, 371 Four-Part 
!!!YOR4: Chorales (New York: Associated Music Publishers, Inc., c.1940).
!!!SMS: B&H, 4th ed, Alfred D&ouml;rffel, c.1875, plate V.A.10
!!!EED:  Craig Stuart Sapp
!!!EEV:  2009/05/22
